X: 32664
T: Poet Carney, The
R: reel
M: 4/4
K: Dmajor
DF~F2 EFDF|Adfd edBd|DF~F2 EFDd|BAGF EDCE|
DF~F2 EFDF|Adfd edBA|a3f gece|dBAG FGEF:|
Dfaf gefg|afdf ed=cB|A=c~c2 BAGB|Ad~d2 efge|
a3f g3e|dfed =cAGB|Ad~d2 =cABd|=cAGE EDDf|
a3f gefg|afdf ed=cB|A=c~c2 BAGB|Ad~d2 efge|
a3f g3e|dfed =cAGB|Ad~d2 =cABd|=cAGE ED^CE||

